Papirus/64x64/mimetypes/application-x-sega-cd-rom.svg

<svg width="64" height="64" version="1.1" xmlns="http://www.w3.org/2000/svg">
 <path d="m12.75 5c-1.5235 0-2.75 1.2488-2.75 2.8v50.4c0 1.55008 1.2265 2.8 2.75 2.8h38.5c1.5224 0 2.75-1.24992 2.75-2.8v-35.2l-14-4-4-14z" style="opacity:.2"/>
 <path d="m12.75 4c-1.5235 0-2.75 1.2488-2.75 2.8v50.4c0 1.55008 1.2265 2.8 2.75 2.8h38.5c1.5224 0 2.75-1.24992 2.75-2.8v-35.2l-14-4-4-14z" style="fill:#4f4f4f;stop-color:#000000"/>
 <path d="m54 23-18-18v15.1875c0 1.55925 1.2555 2.8125 2.8125 2.8125z" style="opacity:.2"/>
 <path d="m54 22-18-18v15.1875c0 1.55925 1.2555 2.8125 2.8125 2.8125z" style="fill:#696969;stop-color:#000000"/>
 <path d="m12.75 4c-1.5235 0-2.75 1.2495812-2.75 2.8007812v1c0-1.5511999 1.2265-2.8007812 2.75-2.8007812h23.25v-1h-23.25z" style="fill:#ffffff;opacity:.2"/>
 <path d="m28.63369-68.54466 10.13664 37.12201c85.05381-9.57298 123.91304-64.06534-14.79937-57.88054 113.64768-14.8062 153.73117 1.02137 144.02904 17.30319s-66.71499 37.61409-139.83538 47.60587z"/>
 <path d="m6.04926-85.23271c-116.59169 21.76355-96.34355 75.3269 5.1875 63.64115-160.75756 33.50157-206.9903-37.00108-5.1875-63.64115z"/>
 <path d="m27.99751 33.790664c-11.59111 3.105829-16.351389 8.522446-15.316034 12.386129 1.035354 3.863682 7.866029 6.174513 19.457139 3.068684 0.965925-0.258818 0.965924-0.258819-0.258819-0.965925-7.986226 1.104626-12.626386-0.757875-13.402843-3.655653-0.776458-2.897777 2.310789-6.830831 9.767244-9.912587 0.01231 0.04593 0.719238-1.179467-0.246687-0.920648zm3.863703-1.035276c-0.965924 0.258819 0.258995 0.96658 0.246687 0.920648 7.998358-1.059349 12.638597 0.803132 13.415054 3.700909 0.776457 2.897778-2.310867 6.830852-7.952369 9.064351l-3.70817-10.081024c-1.224666-0.707127-0.965925 0.258819-0.965925 0.258819l1.881083 10.884003c0.196146 0.732026 0.245399 0.907341 0.677368 0.8376 0.06677-0.01075 0.14093-0.0255 0.22804-0.04695 7.54e-4 -1.85e-4 0.0012-3.26e-4 0.0019-5.17e-4 0.0925-0.02282 0.197391-0.05082 0.317417-0.08298 11.59111-3.105829 16.351336-8.522432 15.316086-12.386143-1.03525-3.86371-7.866081-6.174499-19.457191-3.06867z" style="opacity:.2;stop-color:#000000"/>
 <path d="m27.99751 32.790239c-11.59111 3.105829-16.351389 8.522446-15.316034 12.386129 1.035354 3.863682 7.866029 6.174513 19.457139 3.068684 0.965925-0.258818 0.965924-0.258819-0.258819-0.965925-7.986226 1.104626-12.626386-0.757875-13.402843-3.655653-0.776458-2.897777 2.310789-6.830831 9.767244-9.912587 0.01231 0.04593 0.719238-1.179467-0.246687-0.920648zm3.863703-1.035276c-0.965924 0.258819 0.258995 0.96658 0.246687 0.920648 7.998358-1.059349 12.638597 0.803132 13.415054 3.700909 0.776457 2.897778-2.310867 6.830852-7.952369 9.064351l-3.70817-10.081024c-1.224666-0.707127-0.965925 0.258819-0.965925 0.258819l1.881083 10.884003c0.196146 0.732026 0.245399 0.907341 0.677368 0.8376 0.06677-0.01075 0.14093-0.0255 0.22804-0.04695 7.54e-4 -1.85e-4 0.0012-3.26e-4 0.0019-5.17e-4 0.0925-0.02282 0.197391-0.05082 0.317417-0.08298 11.59111-3.105829 16.351336-8.522432 15.316086-12.386143-1.03525-3.86371-7.866081-6.174499-19.457191-3.06867z" style="fill:#fecd38;stop-color:#000000"/>
</svg>

<svg xmlns="http://www.w3.org/2000/svg" width="64" height="64" version="1.1">
 <path style="opacity:0.2" d="m12.75 5c-1.5235 0-2.75 1.2488-2.75 2.8v50.4c0 1.55008 1.2265 2.8 2.75 2.8h38.5c1.5224 0 2.75-1.24992 2.75-2.8v-35.2l-14-4-4-14z"/>
 <path style="fill:#4f4f4f" d="m12.75 4c-1.5235 0-2.75 1.2488-2.75 2.8v50.4c0 1.55008 1.2265 2.8 2.75 2.8h38.5c1.5224 0 2.75-1.24992 2.75-2.8v-35.2l-14-4-4-14z"/>
 <path style="opacity:0.2" d="m54 23-18-18v15.1875c0 1.55925 1.2555 2.8125 2.8125 2.8125z"/>
 <path style="fill:#696969" d="m54 22-18-18v15.1875c0 1.55925 1.2555 2.8125 2.8125 2.8125z"/>
 <path style="fill:#ffffff;opacity:0.1" d="m12.75 4c-1.5235 0-2.75 1.2495812-2.75 2.8007812v1c0-1.5511999 1.2265-2.8007812 2.75-2.8007812h23.25v-1h-23.25z"/>
 <path style="opacity:0.1" d="M 27.998,33.791 C 16.406,36.896 11.646,42.313 12.681,46.177 13.717,50.04 20.548,52.351 32.139,49.245 33.105,48.987 33.105,48.987 31.88,48.28 23.894,49.384 19.253,47.522 18.477,44.624 17.7,41.726 20.788,37.793 28.244,34.711 28.257,34.757 28.963,33.532 27.998,33.791 Z M 31.861,32.755 C 30.895,33.014 32.12,33.722 32.108,33.676 40.106,32.617 44.746,34.479 45.523,37.377 46.299,40.275 43.212,44.208 37.571,46.441 L 33.862,36.36 C 32.638,35.653 32.896,36.619 32.896,36.619 L 34.778,47.503 C 34.974,48.235 35.023,48.41 35.455,48.341 35.522,48.33 35.596,48.315 35.683,48.294 35.684,48.294 35.684,48.293 35.685,48.293 35.777,48.27 35.882,48.242 36.002,48.21 47.593,45.104 52.354,39.688 51.318,35.824 50.283,31.96 43.452,29.65 31.861,32.755 Z"/>
 <path style="fill:#fecd38" d="M 27.998,32.79 C 16.406,35.896 11.646,41.313 12.681,45.176 13.717,49.04 20.548,51.351 32.139,48.245 33.105,47.986 33.105,47.986 31.88,47.279 23.894,48.384 19.253,46.521 18.477,43.623 17.7,40.726 20.788,36.793 28.244,33.711 28.257,33.757 28.963,32.531 27.998,32.79 Z M 31.861,31.755 C 30.895,32.014 32.12,32.722 32.108,32.676 40.106,31.616 44.746,33.479 45.523,36.377 46.299,39.274 43.212,43.207 37.571,45.441 L 33.862,35.36 C 32.638,34.653 32.896,35.619 32.896,35.619 L 34.778,46.503 C 34.974,47.235 35.023,47.41 35.455,47.34 35.522,47.33 35.596,47.315 35.683,47.293 35.684,47.293 35.684,47.293 35.685,47.293 35.777,47.27 35.882,47.242 36.002,47.21 47.593,44.104 52.354,38.687 51.318,34.824 50.283,30.96 43.452,28.649 31.861,31.755 Z"/>
</svg>
